frontend/src/assets/ca-logo.svg

<svg width="21" height="16" viewBox="0 0 21 16" fill="none" xmlns="http://www.w3.org/2000/svg">
<path d="M14.68 5.95015C14.31 6.05015 13.94 6.16015 13.56 6.25015L12.38 3.82015C12.24 3.59015 12.11 3.59015 11.97 3.83015L10.46 6.83015C10.26 6.85015 10.06 6.90015 9.85 6.90015L10.15 7.46015C9.59 8.51015 9.07 9.58015 8.53 10.6401C8.31 10.9601 7.59 11.2001 7.21 11.1901C6.54 11.1701 5.43 10.8101 4.84 10.4901C1.95 8.93015 1.81 5.01015 4.23 2.97015C5.82 1.63015 7.62 2.04015 9.54 2.00015C9.95 2.06015 9.99 2.90015 9.59 2.95015C9.3 2.99015 8.95 2.94015 8.65 2.93015C7.39 2.91015 6.41 2.82015 5.26 3.45015C2.29 5.08015 3.31 9.63015 6.58 10.0801C7.29 10.1801 7.66 10.1401 8.03 9.49015L11.7 2.30015C12.02 1.79015 12.53 1.81015 12.87 2.27015L14.67 5.94015L14.68 5.95015Z" fill="#165886" style="fill:#165886;fill:color(display-p3 0.0863 0.3451 0.5255);fill-opacity:1;"/>
<path d="M14.68 5.95C15.55 5.72 16.42 5.49 17.28 5.25H17.4C15.44 6.26 13.32 6.92 11.18 7.46L11.79 8.67L11.76 8.71L11.03 9.02C10.76 8.48 10.45 7.97 10.16 7.44L9.85999 6.88C10.06 6.88 10.27 6.84 10.47 6.81C11.34 6.7 12.19 6.54 13.05 6.35C13.11 6.34 13.18 6.31 13.23 6.3C13.34 6.28 13.45 6.26 13.56 6.23C13.94 6.14 14.31 6.03 14.68 5.93V5.95Z" fill="#EF7A22" style="fill:#EF7A22;fill:color(display-p3 0.9373 0.4784 0.1333);fill-opacity:1;"/>
<path d="M15.3 7.22021L17.17 11.0602C16.79 11.3102 16.31 11.2602 15.91 11.1002L14.24 7.67022C14.59 7.52022 14.95 7.38022 15.29 7.23022L15.3 7.22021Z" fill="#165886" style="fill:#165886;fill:color(display-p3 0.0863 0.3451 0.5255);fill-opacity:1;"/>
<path d="M13.8 7.86C13.8 7.86 13.76 7.86 13.73 7.86C13.5 7.95 13.28 8.04 13.06 8.14L13.69 9.29L13 9.68L11.9 7.74C14.15 7.03 16.4 6.33 18.61 5.5L18.38 5.65C17.37 6.21 16.34 6.74 15.29 7.21C14.95 7.36 14.59 7.51 14.24 7.65C14.15 7.69 14.05 7.75 13.96 7.78C13.91 7.8 13.85 7.82 13.8 7.85V7.86Z" fill="#56B74B" style="fill:#56B74B;fill:color(display-p3 0.3373 0.7176 0.2941);fill-opacity:1;"/>
<path d="M6.22 11.8101C6.54 12.2501 6.9 12.6801 7.24 13.1101V11.8101H7.65V13.9101C7.65 13.9101 7.4 13.9501 7.37 13.9101L6.29 12.5201V13.9401H5.88V11.8201H6.23L6.22 11.8101Z" fill="#175A87" style="fill:#175A87;fill:color(display-p3 0.0902 0.3529 0.5294);fill-opacity:1;"/>
<path d="M9.06995 13.9301V11.8101H10.0999C10.2299 11.8101 10.5099 11.9401 10.6099 12.0201C11.2999 12.5801 10.9699 13.9301 10.0499 13.9301H9.06995ZM9.47995 13.5401H10.0499C10.1799 13.5401 10.3799 13.4001 10.4499 13.3001C10.6299 13.0501 10.6099 12.5801 10.3899 12.3601C10.3299 12.3001 10.1199 12.1901 10.0399 12.1901H9.48995V13.5401H9.47995Z" fill="#175A87" style="fill:#175A87;fill:color(display-p3 0.0902 0.3529 0.5294);fill-opacity:1;"/>
<path d="M16.31 13.9303H15.88L15.72 13.5403C15.36 13.5203 14.98 13.5403 14.61 13.5403C14.56 13.5603 14.46 13.8803 14.41 13.9303H13.99L14.92 11.8203C14.92 11.8203 14.95 11.8103 14.97 11.8003C15.04 11.8003 15.26 11.8003 15.33 11.8003C15.39 11.8003 15.4 11.8503 15.42 11.9103C15.71 12.4903 16.04 13.2203 16.28 13.8203C16.29 13.8603 16.31 13.8903 16.31 13.9303ZM15.53 13.1603L15.14 12.2703L14.76 13.1603H15.53Z" fill="#175A87" style="fill:#175A87;fill:color(display-p3 0.0902 0.3529 0.5294);fill-opacity:1;"/>
<path d="M4.36996 11.79H3.95996V13.93H4.36996V11.79Z" fill="#165886" style="fill:#165886;fill:color(display-p3 0.0863 0.3451 0.5255);fill-opacity:1;"/>
<path d="M12.7299 11.79H12.3199V13.93H12.7299V11.79Z" fill="#165886" style="fill:#165886;fill:color(display-p3 0.0863 0.3451 0.5255);fill-opacity:1;"/>
<path d="M13.97 7.79004L15.66 11.23C15.66 11.23 15.81 11.34 15.81 11.36C15.81 11.38 15.79 11.5 15.77 11.51C15.69 11.54 15.51 11.37 15.48 11.29C14.96 10.16 14.34 9.07004 13.83 7.94004C13.82 7.91004 13.8 7.89004 13.81 7.86004C13.86 7.84004 13.92 7.81004 13.97 7.79004Z" fill="#175A87" style="fill:#175A87;fill:color(display-p3 0.0902 0.3529 0.5294);fill-opacity:1;"/>
<path d="M13.23 6.3102C13.18 6.3202 13.11 6.3502 13.05 6.3602C12.7 5.6002 12.31 4.8602 11.95 4.1102C11.93 4.0402 12.03 4.0002 12.07 3.9502L13.23 6.3202V6.3102Z" fill="#175A87" style="fill:#175A87;fill:color(display-p3 0.0902 0.3529 0.5294);fill-opacity:1;"/>
</svg>

<?xml version="1.0" encoding="UTF-8"?>
<svg id="Layer_1" xmlns="http://www.w3.org/2000/svg" version="1.1" viewBox="0 0 20.71 15.95">
  <!-- Generator: Adobe Illustrator 30.0.0, SVG Export Plug-In . SVG Version: 2.1.1 Build 123)  -->
  <defs>
    <style>
      .st0 {
        fill: #165886;
      }

      .st1 {
        fill: #ef7a22;
      }

      .st2 {
        fill: none;
        stroke: #165886;
        stroke-miterlimit: 10;
        stroke-width: .25px;
      }

      .st3 {
        fill: #175a87;
      }

      .st4 {
        fill: #56b74b;
      }
    </style>
  </defs>
  <g>
    <path class="st0" d="M14.68,5.95c-.37.1-.74.21-1.12.3l-1.18-2.43c-.14-.23-.27-.23-.41.01l-1.51,3c-.2.02-.4.07-.61.07l.3.56c-.56,1.05-1.08,2.12-1.62,3.18-.22.32-.94.56-1.32.55-.67-.02-1.78-.38-2.37-.7-2.89-1.56-3.03-5.48-.61-7.52,1.59-1.34,3.39-.93,5.31-.97.41.06.45.9.05.95-.29.04-.64-.01-.94-.02-1.26-.02-2.24-.11-3.39.52-2.97,1.63-1.95,6.18,1.32,6.63.71.1,1.08.06,1.45-.59l3.67-7.19c.32-.51.83-.49,1.17-.03l1.8,3.67Z"/>
    <path class="st1" d="M14.68,5.95c.87-.23,1.74-.46,2.6-.7h.12c-1.96,1.01-4.08,1.67-6.22,2.21l.61,1.21-.03.04-.73.31c-.27-.54-.58-1.05-.87-1.58l-.3-.56c.2,0,.41-.04.61-.07.87-.11,1.72-.27,2.58-.46.06-.01.13-.04.18-.05.11-.02.22-.04.33-.07.38-.09.75-.2,1.12-.3Z"/>
    <path class="st0" d="M15.3,7.22l1.87,3.84c-.38.25-.86.2-1.26.04l-1.67-3.43c.35-.15.71-.29,1.05-.44Z"/>
    <path class="st4" d="M13.8,7.86s-.04,0-.07,0c-.23.09-.45.18-.67.28l.63,1.15-.69.39-1.1-1.94c2.25-.71,4.5-1.41,6.71-2.24l-.23.15c-1.01.56-2.04,1.09-3.09,1.56-.34.15-.7.3-1.05.44-.09.04-.19.1-.28.13-.05.02-.11.04-.16.07Z"/>
    <path class="st3" d="M6.22,11.81c.32.44.68.87,1.02,1.3v-1.3h.41v2.1s-.25.04-.28,0l-1.08-1.39v1.42h-.41v-2.12h.35Z"/>
    <path class="st3" d="M9.07,13.93v-2.12h1.03c.13,0,.41.13.51.21.69.56.36,1.91-.56,1.91h-.98ZM9.48,13.54h.57c.13,0,.33-.14.4-.24.18-.25.16-.72-.06-.94-.06-.06-.27-.17-.35-.17h-.55v1.35Z"/>
    <path class="st3" d="M16.31,13.93h-.43l-.16-.39c-.36-.02-.74,0-1.11,0-.05.02-.15.34-.2.39h-.42l.93-2.11s.03-.01.05-.02c.07,0,.29,0,.36,0,.06,0,.07.05.09.11.29.58.62,1.31.86,1.91.01.04.03.07.03.11ZM15.53,13.16l-.39-.89-.38.89h.77Z"/>
    <rect class="st0" x="3.96" y="11.79" width=".41" height="2.14"/>
    <rect class="st0" x="12.32" y="11.79" width=".41" height="2.14"/>
    <path class="st3" d="M13.97,7.79l1.69,3.44s.15.11.15.13c0,.02-.02.14-.04.15-.08.03-.26-.14-.29-.22-.52-1.13-1.14-2.22-1.65-3.35-.01-.03-.03-.05-.02-.08.05-.02.11-.05.16-.07Z"/>
    <path class="st3" d="M13.23,6.31c-.05.01-.12.04-.18.05-.35-.76-.74-1.5-1.1-2.25-.02-.07.08-.11.12-.16l1.16,2.37Z"/>
  </g>
  <rect class="st2" x=".55" y=".45" width="19.62" height="15.05" rx="1.36" ry="1.36"/>
</svg>
